svgs/duotone/wind-warning.svg

<svg xmlns="http://www.w3.org/2000/svg" viewBox="0 0 640 512"><!-- Font Awesome Pro 6.0.0-alpha2 by @fontawesome - https://fontawesome.com License - https://fontawesome.com/license (Commercial License) --><defs><style>.fa-secondary{opacity:.4}</style></defs><path d="M384.004 271.975H415.121C415.406 268.256 415.856 264.586 415.944 260.812C418.602 145.971 327.658 50.715 212.813 48.057C97.969 45.398 2.713 136.344 0.057 251.188C-2.601 366.031 88.342 461.285 203.188 463.943C291.363 465.984 367.811 412.752 399.846 335.982H384.004C366.328 335.982 352 321.652 352 303.979C352 286.303 366.328 271.975 384.004 271.975ZM184 152C184 138.75 194.75 128 208 128S232 138.75 232 152V264C232 277.25 221.25 288 208 288S184 277.25 184 264V152ZM208 384C190.326 384 176 369.672 176 352C176 334.326 190.326 320 208 320S240 334.326 240 352C240 369.672 225.674 384 208 384Z" class="fa-secondary"/><path d="M208 288C221.25 288 232 277.25 232 264V152C232 138.75 221.25 128 208 128S184 138.75 184 152V264C184 277.25 194.75 288 208 288ZM208 320C190.326 320 176 334.326 176 352C176 369.672 190.326 384 208 384S240 369.672 240 352C240 334.326 225.674 320 208 320ZM552 272H384C366.328 272 352 286.312 352 304S366.328 336 384 336H552C565.234 336 576 346.781 576 360S565.234 384 552 384H512C494.328 384 480 398.312 480 416S494.328 448 512 448H552C600.531 448 640 408.531 640 360S600.531 272 552 272ZM480 240H552C600.531 240 640 200.531 640 152S600.531 64 552 64H512C494.328 64 480 78.312 480 96S494.328 128 512 128H552C565.234 128 576 138.781 576 152S565.234 176 552 176H480C462.328 176 448 190.312 448 208S462.328 240 480 240Z" class="fa-primary"/></svg>

<svg xmlns="http://www.w3.org/2000/svg" viewBox="0 0 640 512"><!--! Font Awesome Pro 6.0.0-alpha3 by @fontawesome - https://fontawesome.com License - https://fontawesome.com/license (Commercial License) --><defs><style>.fa-secondary{opacity:.4}</style></defs><path class="fa-primary" d="M208 288c13.25 0 24-10.75 24-24v-112C232 138.8 221.3 128 208 128S184 138.8 184 152v112C184 277.3 194.8 288 208 288zM208 320c-17.67 0-32 14.33-32 32c0 17.67 14.34 32 32.02 32S240 369.7 240 352C240 334.3 225.7 320 208 320zM552 272l-167.1-.0085C366.3 271.1 352 286.3 352 303.1s14.33 32 32 32L552 336c13.23 0 24 10.78 24 24S565.2 384 552 384H512c-17.67 0-32 14.31-32 32s14.33 32 32 32h40c48.53 0 88-39.47 88-88S600.5 272 552 272zM480 240h72C600.5 240 640 200.5 640 152S600.5 64 552 64H512c-17.67 0-32 14.31-32 32s14.33 32 32 32h40C565.2 128 576 138.8 576 152S565.2 176 552 176H480c-17.67 0-32 14.31-32 32S462.3 240 480 240z"/><path class="fa-secondary" d="M384 271.1l31.12-.0169c.2852-3.719 .7344-7.389 .8223-11.16c2.658-114.8-88.29-210.1-203.1-212.8C97.97 45.4 2.713 136.3 .0566 251.2c-2.658 114.8 88.29 210.1 203.1 212.8c88.18 2.041 164.6-51.19 196.7-127.1l-15.84 .0117C366.3 335.1 352 321.7 352 303.1C352 286.3 366.3 271.1 384 271.1zM184 152C184 138.8 194.8 128 208 128S232 138.8 232 152v112C232 277.3 221.3 288 208 288S184 277.3 184 264V152zM208 384C190.3 384 176 369.7 176 352c0-17.67 14.33-32 32-32s32 14.33 32 32C240 369.7 225.7 384 208 384z"/></svg>
